public/img/usage/mts.svg

<svg fill="none" height="64" viewBox="0 0 64 64" width="64" xmlns="http://www.w3.org/2000/svg" xmlns:xlink="http://www.w3.org/1999/xlink"><clipPath id="a"><path d="m0 0h64v64h-64z"/></clipPath><mask id="b" height="64" maskUnits="userSpaceOnUse" width="64" x="0" y="0"><path d="m64 0h-64v64h64z" fill="#fff"/></mask><g clip-path="url(#a)" opacity=".7"><g mask="url(#b)"><path d="m64 0h-64v64h64z" fill="#ff0032"/><g fill="#fff"><path d="m42.6357 4.92188v2.94539h6.4406v11.82083h3.6v-11.82083h6.4275v-2.94539z"/><path d="m19.4787 4.92188-4.7127 9.76562-4.6995-9.76562h-5.14462v14.76622h3.613v-10.56413l4.59482 8.92783h3.2857l4.5948-8.92783v10.56413h3.6v-14.76622z"/><path d="m55.5034 54.1557c-.0916.5891-.3273 1.0735-.7069 1.44-.3534.3404-.8378.5891-1.44.7331-.5891.1309-1.466.2095-2.3824.2095-.9556 0-1.7934-.1179-2.5134-.3666-.6939-.2356-1.2437-.6545-1.6233-1.2305-.3927-.576-.5891-1.4137-.5891-2.5002v-1.5055c0-1.0735.1964-1.9113.5891-2.5004.3927-.576.9294-.9947 1.6233-1.2304.7069-.2487 1.5578-.3665 2.5134-.3665.9164 0 1.7933.0785 2.3824.2094.6022.144 1.0866.3795 1.44.733.3796.3665.6153.8509.7069 1.44h3.5999c-.1048-1.2175-.5104-2.2515-1.2304-3.0893-.6546-.7593-1.5709-1.3091-2.7098-1.6495-1.0997-.3272-2.5528-.4974-4.189-.4974-1.728 0-3.2204.2487-4.4509.7331-1.2435.4974-2.2122 1.3221-2.8799 2.4611-.6414 1.0864-.9687 2.5525-.9949 4.3329v.1702l.1964.0131-.1964.0131v.0131.157c.0262 1.7804.3535 3.2464.9949 4.333.6677 1.1389 1.6364 1.9636 2.8799 2.4611 1.2305.4843 2.7229.7331 4.4509.7331 1.6362 0 3.0893-.1702 4.189-.4975 1.1389-.3403 2.0421-.8902 2.7098-1.6494.72-.8248 1.1387-1.872 1.2304-3.0895h-3.5999z"/></g></g></g></svg>

<svg width="64" height="64" viewBox="0 0 64 64" fill="none" xmlns="http://www.w3.org/2000/svg">
<g style="mix-blend-mode:luminosity" opacity="0.7" clip-path="url(#clip0_242_4813)">
<mask id="mask0_242_4813" style="mask-type:luminance" maskUnits="userSpaceOnUse" x="0" y="0" width="64" height="64">
<path d="M64 0H0V64H64V0Z" fill="white"/>
</mask>
<g mask="url(#mask0_242_4813)">
<path d="M64 0H0V64H64V0Z" fill="#FF0032"/>
<path d="M42.6357 4.92188V7.86727H49.0763V19.6881H52.6763V7.86727H59.1038V4.92188H42.6357Z" fill="white"/>
<path d="M19.4787 4.92188L14.766 14.6875L10.0665 4.92188H4.92188V19.6881H8.53488V9.12397L13.1297 18.0518H16.4154L21.0102 9.12397V19.6881H24.6102V4.92188H19.4787Z" fill="white"/>
<path d="M55.5034 54.1557C55.4118 54.7448 55.1761 55.2292 54.7965 55.5957C54.4431 55.9361 53.9587 56.1848 53.3565 56.3288C52.7674 56.4597 51.8905 56.5383 50.9741 56.5383C50.0185 56.5383 49.1807 56.4204 48.4607 56.1717C47.7668 55.9361 47.217 55.5172 46.8374 54.9412C46.4447 54.3652 46.2483 53.5275 46.2483 52.441V50.9355C46.2483 49.862 46.4447 49.0242 46.8374 48.4351C47.2301 47.8591 47.7668 47.4404 48.4607 47.2047C49.1676 46.956 50.0185 46.8382 50.9741 46.8382C51.8905 46.8382 52.7674 46.9167 53.3565 47.0476C53.9587 47.1916 54.4431 47.4271 54.7965 47.7806C55.1761 48.1471 55.4118 48.6315 55.5034 49.2206H59.1033C58.9985 48.0031 58.5929 46.9691 57.8729 46.1313C57.2183 45.372 56.302 44.8222 55.1631 44.4818C54.0634 44.1546 52.6103 43.9844 50.9741 43.9844C49.2461 43.9844 47.7537 44.2331 46.5232 44.7175C45.2797 45.2149 44.311 46.0396 43.6433 47.1786C43.0019 48.265 42.6746 49.7311 42.6484 51.5115V51.6817L42.8448 51.6948L42.6484 51.7079V51.721V51.878C42.6746 53.6584 43.0019 55.1244 43.6433 56.211C44.311 57.3499 45.2797 58.1746 46.5232 58.6721C47.7537 59.1564 49.2461 59.4052 50.9741 59.4052C52.6103 59.4052 54.0634 59.235 55.1631 58.9077C56.302 58.5674 57.2052 58.0175 57.8729 57.2583C58.5929 56.4335 59.0116 55.3863 59.1033 54.1688H55.5034V54.1557Z" fill="white"/>
</g>
</g>
<defs>
<clipPath id="clip0_242_4813">
<rect width="64" height="64" fill="white"/>
</clipPath>
</defs>
</svg>
